X: 9535
T: Das Flugelhorn
R: waltz
M: 3/4
K: Dmajor
|:A2 D2 D2|B2 D2 D2|G2 D2 D2|E2 D2 E2|
A2 D2 D2|B2 D2 D2|G2 F2 E2|D6:|
B2 A2 D2|F2 D2 F2|B2 F2 D2|E4 B2|
F2 D2 F2|D2 F2 B F-|F2 B A D2-|D2 B2 A2|
D2 F2 D2|F2 B2 F2|D2 E4|B2 F2 D2|
F2 D2 F2|B F3 B A|D4 z2||

